X:1
T:Title
%%score ( 1 2 ) { 3 | 4 }
L:1/8
Q:1/4=112
M:4/4
K:C
V:1 treble nm="Grand Piano, Soprano"
V:2 treble 
V:3 bass nm="Choir Pad, Gone Is All My Debt of Sin"
V:4 bass 
V:1
 [CE]2 [CF]2 [CE]2 [C_E]2 | [CE]2 [DG]2 [Ec]4 | [Fc]3 [Fd] [Fc]2 [FA]2 | [EG]2 [CE]2 [B,D]4 | %4
w: By~Samuel~William~Beazley,~1917 * * *||||
 [CE]2 [CF]2 [CE]2 [C_E]2 | [CE]2 [DG]2 [Ec]4 | [DB]3 [DG] [DA]2 [D^F]2 | [DG]8 | G3 A B2 G2 | %9
w: |||||
 A2 B2 c4 | d3 d c2 B2 | c2 A2 G4 | [Ge]3 [Ge] [Gd]2 c-[^Gc] | [Ac]3 [GB] [FA]4 | %14
w: |||||
 [EG]2 [Gc]2 [GB]2 [Gd]2 | [Gc]8 | .[EG]2 .[EG]2 .[EG]2 .[EG]2 | .[_E^F]2 .[EF]2 .[=EG]2 .[EG]2 | %18
w: ||||
 .[FG]2 .[FG]2 .[FG]2 .[FG]2 | .[EG]2 .[EG]2 .[EG]2 .[EG]2 | .[CA]2 .[FA]2 .[FA]2 .[FA]2 | %21
w: |||
 .[CG]2 .[EG]2 .[EG]2 .[EG]2 | .[D^F]2 .[DF]2 .[DF]2 .[DF]2 | [DG]2 [EG]2 [FG]4 | %24
w: |||
 .[EG]2 .[EG]2 .[EG]2 .[EG]2 | .[_E^F]2 .[=EG]2 .[EG]2 .[EG]2 | .[FG]2 .[FG]2 .[FG]2 .[FG]2 | %27
w: |||
 .[EG]2 .[EG]2 .[EG]2 .[EG]2 | .[CA]2 .[FA]2 .[FA]2 .[FA]2 | .[CG]2 .[EG]2 .[EG]2 .[EG]2 | %30
w: |||
 .[FG]2 .[FG]2 .[FG]2 .[FG]2 | [EG]2 [FA]2 [EG]4- | [EG]4 z4 |] %33
w: |||
V:2
 x8 | x8 | x8 | x8 | x8 | x8 | x8 | x8 | x8 | x8 | x8 | x8 | z4 z2 .G2 | x8 | x8 | x8 | x8 | x8 | %18
 x8 | x8 | x8 | x8 | x8 | x8 | x8 | x8 | x8 | x8 | x8 | x8 | x8 | x8 | x8 |] %33
V:3
 G,2 A,2 G,2 ^F,2 | G,2 G,2 E,4 | A,3 A, A,2 C2 | C2 G,2 G,4 | G,2 A,2 G,2 ^F,2 | G,2 G,2 E,4 | %6
 G,3 B, C2 A,C | B,8 | B,3[K:treble] C D2 B,2 | C2 D2 E4 | F3 F E2 D2 | E2 F2 E4 | C3 C B,2 C2 | %13
 C3 C C4 | C2 E2 D2 F2 | E8 | .C2 C[K:bass]D, .C2 .C2 | .C2 .C2 .C2 .C2 | .B,2 B,D, .B,2 .B,2 | %19
 .C2 CD,[K:treble] .C2 .C2 | .C2 CG, .C2 .C2 | .C2 .C2 .C2 .C2 | .C2 C[K:bass]E, .C2 .C2 | %23
 B,2 C2 D4 | .C2 CD,[K:treble] .C2 .C2 | .C2 .C2 .C2 .C2 | .B,2 B,D, .B,2 .B,2 | %27
 .C2 CD,[K:treble] .C2 .C2 | .C2 CG, .C2 .C2 | .C2 .C2 .C2 .C2 | .B,2 B,E, .B,2 .B,2 | C2 C2 C4- | %32
 C4 z4 |] %33
V:4
 C,2 C,2 C,2 C,2 | C,2 B,,2 A,,4 | F,3 F, F,2 F,2 | C,2 C,2 G,,4 | C,2 C,2 C,2 C,2 | %5
 C,2 B,,2 A,,4 | D,3 D, D,2 D,2 | G,,8 | z8 | z8 | z8 | z8 | C,3 C, D,2 E,2 | F,3 F, F,4 | %14
 G,2 G,2 G,2 G,2 | C,8 | .C,4 E,2 G,2 | A,4 G,2 z2 | .G,4 B,,2 G,,2 | .C,4 E,4 | .F,4 A,2 F,2 | %21
 E,4 G,4 | .D,4 D,2 A,2 | G,8 | .C,4 E,2 G,2 | A,4 A,4 | .G,4 B,,2 G,,2 | .C,4 E,4 | .F,4 A,2 F,2 | %29
 E,4 G,4 | .D,4 D,2 G,,2 | C,8 | z8 |] %33

